museum-dom/src/assets/svg/video-section/fullscreen_exit.svg

<svg width="36" height="36" viewBox="0 0 36 36" fill="none" xmlns="http://www.w3.org/2000/svg">
<path d="M28.2554 7.74495H35.9764V12.8119H23.1874V0.0229492H28.2544V7.74395L28.2554 7.74495ZM23.1884 35.976V23.1869H35.9774V28.2539H28.2564V35.9749H23.1894L23.1884 35.976ZM7.74544 7.74495V0.0239492H12.8124V12.8129H0.0234375V7.74595H7.74444L7.74544 7.74495ZM0.0244375 28.2549V23.1879H12.8134V35.977H7.74644V28.2559H0.0254375L0.0244375 28.2549Z" fill="#B3B3B3"/>
</svg>

<!-- Generated by IcoMoon.io -->
<svg version="1.1" xmlns="http://www.w3.org/2000/svg" width="36" height="36" viewBox="0 0 36 36">
<title>fullscreen_exit</title>
<path fill="#b3b3b3" d="M28.255 7.745h7.721v5.067h-12.789v-12.789h5.067v7.721zM23.188 35.976v-12.789h12.789v5.067h-7.721v7.721h-5.067zM7.745 7.745v-7.721h5.067v12.789h-12.789v-5.067h7.721zM0.024 28.255v-5.067h12.789v12.789h-5.067v-7.721h-7.721z"></path>
</svg>
